src/img/caution.svg

<svg width="24" height="22" viewBox="0 0 24 22" fill="none" xmlns="http://www.w3.org/2000/svg">
<path d="M11.907 2.02393C11.9364 2.00781 11.9695 1.99954 12.003 1.99993C12.0361 1.9998 12.0686 2.00805 12.0975 2.02393C12.1318 2.0445 12.1599 2.07407 12.1785 2.10943L22.464 19.6099C22.518 19.6999 22.5165 19.7959 22.467 19.8844C22.448 19.9207 22.4202 19.9517 22.386 19.9744C22.3563 19.9926 22.3218 20.0015 22.287 19.9999H1.71904C1.68422 20.0016 1.64971 19.9927 1.62004 19.9744C1.58592 19.9517 1.55807 19.9207 1.53904 19.8844C1.51432 19.8428 1.50153 19.7952 1.50206 19.7468C1.50259 19.6983 1.51642 19.651 1.54204 19.6099L11.826 2.10943C11.8448 2.07411 11.8728 2.04456 11.907 2.02393ZM13.473 1.34893C13.3246 1.09027 13.1105 0.875377 12.8524 0.725937C12.5942 0.576496 12.3013 0.497803 12.003 0.497803C11.7048 0.497803 11.4118 0.576496 11.1537 0.725937C10.8956 0.875377 10.6815 1.09027 10.533 1.34893L0.247541 18.8494C-0.437959 20.0164 0.384041 21.4999 1.71754 21.4999H22.287C23.6205 21.4999 24.444 20.0149 23.757 18.8494L13.473 1.34893Z" fill="white"/>
</svg>

<svg xmlns="http://www.w3.org/2000/svg" width="24" height="22" fill="none"><path fill="#fff" d="M11.907 2.024A.195.195 0 0 1 12.003 2c.033 0 .066.008.095.024.034.02.062.05.08.085l10.286 17.5c.054.09.053.187.003.275a.243.243 0 0 1-.081.09.174.174 0 0 1-.099.026H1.719a.173.173 0 0 1-.099-.026.244.244 0 0 1-.081-.09.264.264 0 0 1 .003-.274l10.284-17.5a.221.221 0 0 1 .081-.086Zm1.566-.675a1.694 1.694 0 0 0-2.94 0L.248 18.849c-.686 1.167.136 2.65 1.47 2.65h20.569c1.334 0 2.157-1.484 1.47-2.65L13.473 1.35Z"/></svg>
